X:989
T:Bill Malley's barndance
R:Barndance
P:APB Martin Hayes
D:Martin Hayes, Under the Moon
S:Martin Hayes, Under the Moon
Z:Transcription, chords:Mike Long
M:C|
L:1/8
K:G
D2|\
"G"G3A {A}B2 GB|dedB G2 ~d2|B2G2 d2G2|"D"~B2A2 A2Jd2|\
"G"G3A {A}B2 GB|dedB G2Ac|
"C/G"JB2AG "D"E2 D/E/F|"G"G4 G2:|\
|:~g2|\
"C"e2d2 "G"Jg>a ge|"G"dedB G2g/g/g|"C"e2d2 "G"Jg3d|
"D"B2 A/A/A A2~g2|\
"C"e2d2 "G"g>a ge|"G"dedB G2Ac|"C/G"JB2AG "D"E2 D/E/F|"G"G4 G2:|
